Numix-Light-GalliumOS/22/status/hangouts-available-missed.svg

<?xml version="1.0" encoding="UTF-8" standalone="no"?>
<!-- Generator: Adobe Illustrator 16.0.0, SVG Export Plug-In . SVG Version: 6.00 Build 0)  -->

<svg
   xmlns:dc="http://purl.org/dc/elements/1.1/"
   xmlns:cc="http://creativecommons.org/ns#"
   xmlns:rdf="http://www.w3.org/1999/02/22-rdf-syntax-ns#"
   xmlns:svg="http://www.w3.org/2000/svg"
   xmlns="http://www.w3.org/2000/svg"
   xmlns:sodipodi="http://sodipodi.sourceforge.net/DTD/sodipodi-0.dtd"
   xmlns:inkscape="http://www.inkscape.org/namespaces/inkscape"
   version="1.1"
   id="Capa_1"
   x="0px"
   y="0px"
   width="22"
   height="22"
   viewBox="0 0 22 22"
   xml:space="preserve"
   inkscape:version="0.91 r"
   sodipodi:docname="hangouts-available-missed.svg"><metadata
     id="metadata42"><rdf:RDF><cc:Work
         rdf:about=""><dc:format>image/svg+xml</dc:format><dc:type
           rdf:resource="http://purl.org/dc/dcmitype/StillImage" /><dc:title /></cc:Work></rdf:RDF></metadata><defs
     id="defs40" /><sodipodi:namedview
     pagecolor="#ffffff"
     bordercolor="#666666"
     borderopacity="1"
     objecttolerance="10"
     gridtolerance="10"
     guidetolerance="10"
     inkscape:pageopacity="0"
     inkscape:pageshadow="2"
     inkscape:window-width="1920"
     inkscape:window-height="1056"
     id="namedview38"
     showgrid="true"
     inkscape:zoom="14.446676"
     inkscape:cx="17.042735"
     inkscape:cy="-8.0341019"
     inkscape:window-x="0"
     inkscape:window-y="24"
     inkscape:window-maximized="1"
     inkscape:current-layer="Capa_1"><inkscape:grid
       type="xygrid"
       id="grid4170" /></sodipodi:namedview><g
     id="g3"
     transform="matrix(0.03690888,0,0,0.03690888,1.3529415,2.705883)"><g
       id="hangout"><path
         d="M 11 3 C 6.5764707 3 3 6.5764707 3 11 C 3 15.423529 6.5764707 19 11 19 L 11 22 C 15.611765 19.835294 19 15.235294 19 11 C 19 6.5764707 15.423529 3 11 3 z M 6 8 L 10 8 L 10 12 L 8.6660156 14.667969 L 6.6660156 14.667969 L 8 12 L 6 12 L 6 8 z M 12 8 L 16 8 L 16 12 L 14.666016 14.667969 L 12.666016 14.667969 L 14 12 L 12 12 L 12 8 z "
         transform="matrix(27.093751,0,0,27.093751,-36.65626,-73.31252)"
         id="path6"
         style="fill:#353535;fill-opacity:1" /></g></g><g
     id="g8"
     transform="translate(0,-500.75)" /><g
     id="g10"
     transform="translate(0,-500.75)" /><g
     id="g12"
     transform="translate(0,-500.75)" /><g
     id="g14"
     transform="translate(0,-500.75)" /><g
     id="g16"
     transform="translate(0,-500.75)" /><g
     id="g18"
     transform="translate(0,-500.75)" /><g
     id="g20"
     transform="translate(0,-500.75)" /><g
     id="g22"
     transform="translate(0,-500.75)" /><g
     id="g24"
     transform="translate(0,-500.75)" /><g
     id="g26"
     transform="translate(0,-500.75)" /><g
     id="g28"
     transform="translate(0,-500.75)" /><g
     id="g30"
     transform="translate(0,-500.75)" /><g
     id="g32"
     transform="translate(0,-500.75)" /><g
     id="g34"
     transform="translate(0,-500.75)" /><g
     id="g36"
     transform="translate(0,-500.75)" /></svg>

<!-- Generator: Adobe Illustrator 16.0.0, SVG Export Plug-In . SVG Version: 6.00 Build 0)  -->
<svg xmlns="http://www.w3.org/2000/svg" viewBox="0 0 22 22">
 <g transform="matrix(0.03690888,0,0,0.03690888,1.3529415,2.705883)">
  <g>
   <path d="m 11 3 c -4.424 0 -8 3.576 -8 8 c 0 4.424 3.576 8 8 8 l 0 3 c 4.612 -2.165 8 -6.765 8 -11 c 0 -4.424 -3.576 -8 -8 -8 z m -5 5 l 4 0 l 0 4 l -1.334 2.668 l -2 0 l 1.334 -2.668 l -2 0 l 0 -4 z m 6 0 l 4 0 l 0 4 l -1.334 2.668 l -2 0 l 1.334 -2.668 l -2 0 l 0 -4 z" transform="matrix(27.093751,0,0,27.093751,-36.65626,-73.31252)" style="fill:#353535;fill-opacity:1"/>
  </g>
 </g>
</svg>
